src/lib/packages/icons/src/assets/filled/bookmark-plus.svg

<svg width="24" height="24" viewBox="0 0 24 24" fill="none" xmlns="http://www.w3.org/2000/svg">
<path d="M16 3H8C6 3 5 4 5 6V21L12 17L19 21V6C19 4 18 3 16 3ZM14.5 10.75H12.75V12.5C12.75 12.914 12.414 13.25 12 13.25C11.586 13.25 11.25 12.914 11.25 12.5V10.75H9.5C9.086 10.75 8.75 10.414 8.75 10C8.75 9.586 9.086 9.25 9.5 9.25H11.25V7.5C11.25 7.086 11.586 6.75 12 6.75C12.414 6.75 12.75 7.086 12.75 7.5V9.25H14.5C14.914 9.25 15.25 9.586 15.25 10C15.25 10.414 14.914 10.75 14.5 10.75Z" fill="currentColor"/>
</svg>

<svg xmlns="http://www.w3.org/2000/svg" width="24" height="24" fill="none"><path fill="currentColor" d="M16 3H8C6 3 5 4 5 6v15l7-4 7 4V6c0-2-1-3-3-3Zm-1.5 7.75h-1.75v1.75a.75.75 0 0 1-1.5 0v-1.75H9.5a.75.75 0 0 1 0-1.5h1.75V7.5a.75.75 0 0 1 1.5 0v1.75h1.75a.75.75 0 0 1 0 1.5Z"/></svg>
